static/img/menus/ico-air-upface.svg

<svg width="16" height="16" viewBox="0 0 16 16" fill="none" xmlns="http://www.w3.org/2000/svg">
<path d="M13.5 3H2.5C2.22386 3 2 3.22386 2 3.5V12.5C2 12.7761 2.22386 13 2.5 13H13.5C13.7761 13 14 12.7761 14 12.5V3.5C14 3.22386 13.7761 3 13.5 3Z" stroke="currentColor" stroke-linecap="round" stroke-linejoin="round"/>
<path d="M2 10.4999L5.14375 7.3562C5.19027 7.30893 5.24573 7.27147 5.30689 7.2458C5.36805 7.2202 5.43369 7.207 5.5 7.207C5.56631 7.207 5.63195 7.2202 5.69311 7.2458C5.75427 7.27147 5.80973 7.30893 5.85625 7.3562L8.64373 10.1437C8.69027 10.1909 8.74573 10.2285 8.80687 10.2541C8.86807 10.2797 8.93367 10.2929 9 10.2929C9.06633 10.2929 9.13193 10.2797 9.19313 10.2541C9.25427 10.2285 9.30973 10.1909 9.35627 10.1437L10.6437 8.8562C10.6903 8.80893 10.7457 8.77147 10.8069 8.7458C10.8681 8.7202 10.9337 8.707 11 8.707C11.0663 8.707 11.1319 8.7202 11.1931 8.7458C11.2543 8.77147 11.3097 8.80893 11.3563 8.8562L14 11.4999" stroke="currentColor" stroke-linecap="round" stroke-linejoin="round"/>
<path d="M9.75 7C10.1642 7 10.5 6.66421 10.5 6.25C10.5 5.83579 10.1642 5.5 9.75 5.5C9.3358 5.5 9 5.83579 9 6.25C9 6.66421 9.3358 7 9.75 7Z" fill="currentColor"/>
</svg>

<svg xmlns="http://www.w3.org/2000/svg" width="16" height="16" fill="none" viewBox="0 0 16 16"><path stroke="currentColor" stroke-linecap="round" stroke-linejoin="round" d="M13.5 3h-11a.5.5 0 0 0-.5.5v9a.5.5 0 0 0 .5.5h11a.5.5 0 0 0 .5-.5v-9a.5.5 0 0 0-.5-.5"/><path stroke="currentColor" stroke-linecap="round" stroke-linejoin="round" d="m2 10.5 3.144-3.144a.5.5 0 0 1 .712 0l2.788 2.788a.5.5 0 0 0 .712 0l1.288-1.288a.5.5 0 0 1 .712 0L14 11.5"/><path fill="currentColor" d="M9.75 7a.75.75 0 1 0 0-1.5.75.75 0 0 0 0 1.5"/></svg>
